images/logo.svg

<svg width="176" height="56" viewBox="0 0 176 56" fill="none" xmlns="http://www.w3.org/2000/svg">
<rect width="42" height="56" fill="#FBB731"/>
<path fill-rule="evenodd" clip-rule="evenodd" d="M40.5 7H43.5C54.2644 7.01239 62.9876 15.7356 63 26.5C63 27.3284 62.3284 28 61.5 28H22.5C21.6716 28 21 27.3284 21 26.5C21.0124 15.7356 29.7356 7.01239 40.5 7ZM40.4999 9.99996C31.9723 10.0102 24.8533 16.5086 24.0675 25H59.9324C59.1467 16.5085 52.0277 10.0102 43.5 9.99996H40.4999Z" fill="#443737"/>
<path fill-rule="evenodd" clip-rule="evenodd" d="M55.5 37.1084H61.5001C62.3285 37.1084 63.0001 37.7739 63 38.5949V41.5677C62.9951 45.6704 59.6401 48.9951 55.5 49H28.5C24.3599 48.9951 21.0049 45.6704 21 41.5677V38.5949C21 37.7739 21.6716 37.1084 22.5 37.1084H43.4999C43.8245 37.1084 44.1403 37.2127 44.3999 37.4057L49.5 41.1961L54.6 37.4057C54.8596 37.2127 55.1754 37.1084 55.5 37.1084ZM55.5 46.0271C57.9853 46.0271 60 44.0306 60 41.5677V40.0813H55.9995L50.4 44.2434C49.8667 44.6397 49.1333 44.6397 48.6 44.2434L43.0005 40.0813H24V41.5677C24 44.0306 26.0147 46.0271 28.5 46.0271H55.5Z" fill="#443737"/>
<path d="M61.5 31.0361H22.5C21.6716 31.0361 21 31.7158 21 32.5542C21 33.3925 21.6716 34.0723 22.5 34.0723H61.5C62.3284 34.0723 63 33.3926 63 32.5542C63 31.7157 62.3284 31.0361 61.5 31.0361Z" fill="#443737"/>
<path d="M34.4096 15.8555C33.5712 15.8555 32.8916 16.5351 32.8916 17.3735V18.8916C32.8916 19.73 33.5712 20.4097 34.4096 20.4097C35.2481 20.4097 35.9277 19.73 35.9277 18.8916V17.3735C35.9277 16.5351 35.2481 15.8555 34.4096 15.8555Z" fill="#443737"/>
<path d="M42 15.8555C41.1616 15.8555 40.4819 16.5351 40.4819 17.3735V18.8916C40.4819 19.73 41.1616 20.4097 42 20.4097C42.8384 20.4097 43.5181 19.7299 43.5181 18.8915V17.3735C43.5181 16.5351 42.8384 15.8555 42 15.8555Z" fill="#443737"/>
<path d="M49.5904 15.8555C48.7519 15.8555 48.0723 16.5351 48.0723 17.3735V18.8916C48.0723 19.73 48.7519 20.4097 49.5904 20.4097C50.4288 20.4097 51.1084 19.73 51.1084 18.8916V17.3735C51.1084 16.5351 50.4287 15.8555 49.5904 15.8555Z" fill="#443737"/>
<path d="M74.704 35.9999V19.0799H82.456C84.264 19.0799 85.656 19.4719 86.632 20.2559C87.624 21.0399 88.12 22.1119 88.12 23.4719C88.12 24.3679 87.896 25.1439 87.448 25.7999C87 26.4399 86.376 26.9199 85.576 27.2399C86.536 27.5119 87.272 27.9919 87.784 28.6799C88.312 29.3679 88.576 30.2159 88.576 31.2239C88.576 32.7279 88.048 33.9039 86.992 34.7519C85.952 35.5839 84.528 35.9999 82.72 35.9999H74.704ZM78.256 26.0399H81.808C83.632 26.0399 84.544 25.3359 84.544 23.9279C84.544 22.5359 83.632 21.8399 81.808 21.8399H78.256V26.0399ZM78.256 33.2399H82.216C83.176 33.2399 83.88 33.0559 84.328 32.6879C84.776 32.3199 85 31.7599 85 31.0079C85 30.2719 84.776 29.7199 84.328 29.3519C83.88 28.9839 83.176 28.7999 82.216 28.7999H78.256V33.2399Z" fill="#443737"/>
<path d="M98.6395 36.2639C96.2395 36.2639 94.4075 35.6479 93.1435 34.4159C91.8955 33.1839 91.2715 31.3519 91.2715 28.9199V19.0799H94.9915V28.9439C94.9915 30.3199 95.3035 31.3599 95.9275 32.0639C96.5515 32.7519 97.4555 33.0959 98.6395 33.0959C101.056 33.0959 102.264 31.7119 102.264 28.9439V19.0799H105.936V28.9199C105.936 31.3519 105.32 33.1839 104.088 34.4159C102.856 35.6479 101.04 36.2639 98.6395 36.2639Z" fill="#443737"/>
<path d="M109.227 35.9999V19.0799H116.955C118.843 19.0799 120.299 19.5359 121.323 20.4479C122.347 21.3599 122.859 22.6319 122.859 24.2639C122.859 25.5279 122.531 26.5839 121.875 27.4319C121.235 28.2639 120.315 28.8319 119.115 29.1359C119.963 29.3919 120.659 30.0079 121.203 30.9839L123.939 35.9999H119.835L116.907 30.5999C116.667 30.1679 116.371 29.8719 116.019 29.7119C115.667 29.5359 115.251 29.4479 114.771 29.4479H112.947V35.9999H109.227ZM112.947 26.7599H116.283C118.283 26.7599 119.283 25.9599 119.283 24.3599C119.283 22.7759 118.283 21.9839 116.283 21.9839H112.947V26.7599Z" fill="#443737"/>
<path d="M134.197 36.2639C132.293 36.2639 130.677 35.9039 129.349 35.1839C128.037 34.4639 127.037 33.4559 126.349 32.1599C125.661 30.8639 125.317 29.3439 125.317 27.5999C125.317 25.8079 125.669 24.2559 126.373 22.9439C127.093 21.6319 128.125 20.6159 129.469 19.8959C130.813 19.1759 132.429 18.8159 134.317 18.8159C135.501 18.8159 136.621 18.9839 137.677 19.3199C138.749 19.6559 139.621 20.1039 140.293 20.6639L139.093 23.5679C138.357 23.0239 137.605 22.6399 136.837 22.4159C136.069 22.1759 135.237 22.0559 134.341 22.0559C132.629 22.0559 131.341 22.5359 130.477 23.4959C129.629 24.4399 129.205 25.8079 129.205 27.5999C129.205 29.4079 129.637 30.7759 130.501 31.7039C131.381 32.6319 132.677 33.0959 134.389 33.0959C135.301 33.0959 136.261 32.9519 137.269 32.6639V29.3519H133.621V26.6639H140.341V34.9679C139.509 35.3839 138.549 35.7039 137.461 35.9279C136.373 36.1519 135.285 36.2639 134.197 36.2639Z" fill="#443737"/>
<path d="M151.482 36.2639C149.818 36.2639 148.354 35.9039 147.09 35.1839C145.842 34.4479 144.866 33.4319 144.162 32.1359C143.474 30.8239 143.13 29.2879 143.13 27.5279C143.13 25.7679 143.474 24.2399 144.162 22.9439C144.866 21.6319 145.842 20.6159 147.09 19.8959C148.338 19.1759 149.802 18.8159 151.482 18.8159C153.162 18.8159 154.626 19.1759 155.874 19.8959C157.138 20.6159 158.114 21.6319 158.802 22.9439C159.506 24.2399 159.858 25.7599 159.858 27.5039C159.858 29.2639 159.506 30.7999 158.802 32.1119C158.114 33.4239 157.138 34.4479 155.874 35.1839C154.626 35.9039 153.162 36.2639 151.482 36.2639ZM151.482 33.0959C152.89 33.0959 153.986 32.6079 154.77 31.6319C155.57 30.6399 155.97 29.2719 155.97 27.5279C155.97 25.7679 155.578 24.4079 154.794 23.4479C154.01 22.4719 152.906 21.9839 151.482 21.9839C150.09 21.9839 148.994 22.4719 148.194 23.4479C147.41 24.4079 147.018 25.7679 147.018 27.5279C147.018 29.2719 147.41 30.6399 148.194 31.6319C148.994 32.6079 150.09 33.0959 151.482 33.0959Z" fill="#443737"/>
<path d="M168.783 36.2639C167.455 36.2639 166.199 36.0959 165.015 35.7599C163.847 35.4239 162.871 34.9679 162.087 34.3919L163.167 31.4639C163.919 31.9919 164.775 32.4079 165.735 32.7119C166.711 33.0159 167.727 33.1679 168.783 33.1679C169.935 33.1679 170.759 32.9919 171.255 32.6399C171.767 32.2719 172.023 31.8159 172.023 31.2719C172.023 30.8079 171.847 30.4399 171.495 30.1679C171.143 29.8959 170.527 29.6639 169.647 29.4719L166.935 28.8959C163.911 28.2559 162.399 26.6879 162.399 24.1919C162.399 23.1199 162.687 22.1839 163.263 21.3839C163.839 20.5679 164.639 19.9359 165.663 19.4879C166.703 19.0399 167.903 18.8159 169.263 18.8159C170.431 18.8159 171.527 18.9839 172.551 19.3199C173.575 19.6559 174.423 20.1279 175.095 20.7359L174.015 23.4719C172.703 22.4319 171.111 21.9119 169.239 21.9119C168.231 21.9119 167.447 22.1119 166.887 22.5119C166.343 22.8959 166.071 23.3999 166.071 24.0239C166.071 24.4879 166.239 24.8639 166.575 25.1519C166.911 25.4399 167.495 25.6719 168.327 25.8479L171.039 26.4239C174.143 27.0959 175.695 28.6159 175.695 30.9839C175.695 32.0399 175.407 32.9679 174.831 33.7679C174.271 34.5519 173.471 35.1679 172.431 35.6159C171.407 36.0479 170.191 36.2639 168.783 36.2639Z" fill="#443737"/>
</svg>

<svg xmlns="http://www.w3.org/2000/svg" width="176" height="56" fill="none" viewBox="0 0 176 56"><path fill="#fbb731" d="M0 0h42v56H0z"/><path fill="#443737" fill-rule="evenodd" d="M40.5 7h3c10.764.012 19.488 8.736 19.5 19.5a1.5 1.5 0 0 1-1.5 1.5h-39a1.5 1.5 0 0 1-1.5-1.5C21.012 15.736 29.736 7.012 40.5 7m0 3c-8.528.01-15.647 6.509-16.432 15h35.864c-.785-8.491-7.904-14.99-16.432-15zm15 27.108h6c.828 0 1.5.666 1.5 1.487v2.973c-.005 4.102-3.36 7.427-7.5 7.432h-27c-4.14-.005-7.495-3.33-7.5-7.432v-2.973c0-.821.672-1.487 1.5-1.487h21c.325 0 .64.105.9.298l5.1 3.79 5.1-3.79a1.5 1.5 0 0 1 .9-.298m0 8.92c2.485 0 4.5-1.997 4.5-4.46V40.08h-4l-5.6 4.162a1.51 1.51 0 0 1-1.8 0L43 40.081H24v1.487c0 2.463 2.015 4.46 4.5 4.46z" clip-rule="evenodd"/><path fill="#443737" d="M61.5 31.036h-39c-.828 0-1.5.68-1.5 1.518a1.51 1.51 0 0 0 1.5 1.518h39c.828 0 1.5-.68 1.5-1.518a1.51 1.51 0 0 0-1.5-1.518m-27.09-15.18c-.839 0-1.518.68-1.518 1.518v1.518a1.518 1.518 0 1 0 3.036 0v-1.518c0-.839-.68-1.518-1.518-1.518m7.59 0c-.838 0-1.518.68-1.518 1.518v1.518a1.518 1.518 0 1 0 3.036 0v-1.518c0-.839-.68-1.518-1.518-1.518m7.59 0c-.838 0-1.518.68-1.518 1.518v1.518a1.518 1.518 0 1 0 3.036 0v-1.518c0-.839-.68-1.518-1.518-1.518M74.704 36V19.08h7.752q2.712 0 4.176 1.176 1.488 1.176 1.488 3.216 0 1.344-.672 2.328-.672.96-1.872 1.44 1.44.408 2.208 1.44.792 1.032.792 2.544 0 2.256-1.584 3.528Q85.432 36 82.72 36zm3.552-9.96h3.552q2.736 0 2.736-2.112 0-2.088-2.736-2.088h-3.552zm0 7.2h3.96q1.44 0 2.112-.552t.672-1.68q0-1.104-.672-1.656t-2.112-.552h-3.96zm20.384 3.024q-3.6 0-5.496-1.848-1.873-1.848-1.873-5.496v-9.84h3.72v9.864q0 2.064.936 3.12.936 1.032 2.712 1.032 3.625 0 3.625-4.152V19.08h3.672v9.84q0 3.648-1.848 5.496t-5.448 1.848M109.227 36V19.08h7.728q2.832 0 4.368 1.368t1.536 3.816q0 1.896-.984 3.168-.96 1.248-2.76 1.704 1.272.384 2.088 1.848L123.939 36h-4.104l-2.928-5.4q-.36-.648-.888-.888-.528-.264-1.248-.264h-1.824V36zm3.72-9.24h3.336q3 0 3-2.4 0-2.376-3-2.376h-3.336zm21.25 9.504q-2.856 0-4.848-1.08-1.968-1.08-3-3.024t-1.032-4.56q0-2.688 1.056-4.656 1.08-1.968 3.096-3.048t4.848-1.08q1.776 0 3.36.504 1.608.504 2.616 1.344l-1.2 2.904q-1.104-.816-2.256-1.152-1.152-.36-2.496-.36-2.568 0-3.864 1.44-1.272 1.416-1.272 4.104 0 2.712 1.296 4.104 1.32 1.392 3.888 1.392 1.368 0 2.88-.432v-3.312h-3.648v-2.688h6.72v8.304q-1.248.624-2.88.96a16 16 0 0 1-3.264.336m17.285 0q-2.496 0-4.392-1.08a7.8 7.8 0 0 1-2.928-3.048q-1.032-1.968-1.032-4.608t1.032-4.584q1.056-1.968 2.928-3.048t4.392-1.08 4.392 1.08a7.37 7.37 0 0 1 2.928 3.048q1.056 1.944 1.056 4.56 0 2.64-1.056 4.608a7.53 7.53 0 0 1-2.928 3.072q-1.872 1.08-4.392 1.08m0-3.168q2.112 0 3.288-1.464 1.2-1.488 1.2-4.104 0-2.64-1.176-4.08-1.176-1.464-3.312-1.464-2.088 0-3.288 1.464-1.176 1.44-1.176 4.08 0 2.616 1.176 4.104 1.2 1.464 3.288 1.464m17.301 3.168q-1.992 0-3.768-.504-1.752-.504-2.928-1.368l1.08-2.928a9.3 9.3 0 0 0 2.568 1.248 10.2 10.2 0 0 0 3.048.456q1.728 0 2.472-.528.768-.552.768-1.368 0-.696-.528-1.104t-1.848-.696l-2.712-.576q-4.536-.96-4.536-4.704 0-1.608.864-2.808.864-1.224 2.4-1.896 1.56-.672 3.6-.672 1.752 0 3.288.504t2.544 1.416l-1.08 2.736q-1.968-1.56-4.776-1.56-1.512 0-2.352.6-.816.576-.816 1.512 0 .696.504 1.128t1.752.696l2.712.576q4.656 1.008 4.656 4.56 0 1.584-.864 2.784-.84 1.176-2.4 1.848-1.536.648-3.648.648"/></svg>
